docs/images/t.svg

<?xml version="1.0" encoding="UTF-8" standalone="no"?>
<svg width="40px" height="73px" viewBox="0 0 40 73" version="1.1" xmlns="http://www.w3.org/2000/svg" xmlns:xlink="http://www.w3.org/1999/xlink" xmlns:sketch="http://www.bohemiancoding.com/sketch/ns">
    <!-- Generator: Sketch 3.3.3 (12081) - http://www.bohemiancoding.com/sketch -->
    <title>Rectangle 1</title>
    <desc>Created with Sketch.</desc>
    <defs></defs>
    <g id="Page-1" stroke="none" stroke-width="1" fill="none" fill-rule="evenodd" sketch:type="MSPage">
        <g id="1024" sketch:type="MSArtboardGroup" transform="translate(-380.000000, -795.000000)" fill="#4D5E63">
            <g id="stokr-+-Rectangle-1-Copy" sketch:type="MSLayerGroup" transform="translate(380.000000, 795.000000)">
                <path d="M20.2676231,0.953966373 C19.9219042,0.670771651 19.4793868,0.5 18.9970483,0.5 L2.50295172,0.5 C1.39404114,0.5 0.5,1.39130934 0.5,2.49079514 L0.5,18.5092049 C0.5,18.6336381 0.511631514,18.7555501 0.533879239,18.8739014 C0.532126413,18.905408 0.53125,18.9370242 0.53125,18.96875 C0.625000469,20.4687575 1.37499297,21.21875 2.78125,21.21875 L10.9375,21.21875 L10.9375,56.9375 C10.9375,63.1250309 13.0468539,67.4374878 17.265625,69.875 C19.0468839,70.9062552 20.8984279,71.5390613 22.8203125,71.7734375 C24.7421971,72.0078137 26.8749883,72.125 29.21875,72.125 C31.5625117,72.125 34.3749836,71.3750075 37.65625,69.875 C39.1562575,69.2187467 39.90625,68.1171952 39.90625,66.5703125 C39.90625,65.0234298 39.4843792,63.8515665 38.640625,63.0546875 C37.7968708,62.2578085 36.8593802,61.859375 35.828125,61.859375 C34.7968698,61.859375 33.835942,62.0234359 32.9453125,62.3515625 C32.054683,62.6796891 30.5781353,62.84375 28.515625,62.84375 C26.4531147,62.84375 24.9531297,62.5625028 24.015625,62 C22.2343661,60.9687448 21.34375,59.0000145 21.34375,56.09375 L21.34375,21.21875 L34.421875,21.21875 C35.7343816,21.21875 36.8124958,20.7968792 37.65625,19.953125 C38.5000042,19.1093708 38.921875,18.0312566 38.921875,16.71875 C38.921875,15.4062434 38.5000042,14.3281292 37.65625,13.484375 C36.8124958,12.6406208 35.7343816,12.21875 34.421875,12.21875 L21.34375,12.21875 L21.34375,3.078125 C21.34375,2.42187172 21.1562519,1.85937734 20.78125,1.390625 C20.6322431,1.20436634 20.4610344,1.0588136 20.2676231,0.953966373 Z" id="Rectangle-1" sketch:type="MSShapeGroup"></path>
            </g>
        </g>
    </g>
</svg>

<svg width="40" height="73" viewBox="0 0 40 73" xmlns="http://www.w3.org/2000/svg"><title>Rectangle 1</title><path d="M20.268.954A1.999 1.999 0 0 0 18.997.5H2.503A1.995 1.995 0 0 0 .5 2.49v16.02c0 .124.012.246.034.364a1.707 1.707 0 0 0-.003.095c.094 1.5.844 2.25 2.25 2.25h8.156v35.718c0 6.188 2.11 10.5 6.329 12.938 1.78 1.031 3.632 1.664 5.554 1.898 1.922.235 4.055.352 6.399.352 2.344 0 5.156-.75 8.437-2.25 1.5-.656 2.25-1.758 2.25-3.305 0-1.547-.422-2.718-1.265-3.515-.844-.797-1.782-1.196-2.813-1.196a8.275 8.275 0 0 0-2.883.493c-.89.328-2.367.492-4.43.492-2.062 0-3.562-.281-4.5-.844-1.78-1.031-2.671-3-2.671-5.906V21.219h13.078c1.312 0 2.39-.422 3.234-1.266.844-.844 1.266-1.922 1.266-3.234 0-1.313-.422-2.39-1.266-3.235-.844-.843-1.922-1.265-3.234-1.265H21.344v-9.14c0-.657-.188-1.22-.563-1.688a1.685 1.685 0 0 0-.513-.437z" fill="#4D5E63" fill-rule="evenodd"/></svg>
